assets/image/cars-img2.svg

<svg width="40" height="40" viewBox="0 0 40 40" fill="none" xmlns="http://www.w3.org/2000/svg">
<g clip-path="url(#clip0_31_471)">
<path d="M39.935 17.1767V17.1733L34.2267 3.61667C33.92 2.89 33.3917 2.31833 32.755 1.92833C32.6783 1.84667 32.585 1.77667 32.4733 1.73C32.43 1.71167 32.3833 1.71333 32.3367 1.70333C31.59 1.36833 30.7367 1.27167 29.9017 1.495L20.835 3.91V0.833333C20.835 0.373333 20.4617 0 20.0017 0C19.5417 0 19.1683 0.373333 19.1683 0.833333V4.355L9.63 6.895C7.89333 7.35667 6.44333 8.62167 5.75 10.2767L0.065 23.845C0.0216667 23.9483 0 25.4883 0 25.4883C0 29.5383 3 32.9717 6.83167 33.3033C7.06 33.3233 7.285 33.3333 7.51 33.3333C9.39167 33.3333 11.1667 32.6467 12.5667 31.3617C14.1133 29.9433 15 27.9283 15 25.8333C15 25.8333 14.975 23.935 14.9283 23.8283L8.48 9.32C8.93833 8.94167 9.475 8.66 10.0583 8.505L19.1667 6.07833V38.3333H7.5C7.04 38.3333 6.66667 38.7067 6.66667 39.1667C6.66667 39.6267 7.04 40 7.5 40H32.5C32.96 40 33.3333 39.6267 33.3333 39.1667C33.3333 38.7067 32.96 38.3333 32.5 38.3333H20.8333V5.63667L30.33 3.10833C30.5583 3.04667 30.7883 3.035 31.0117 3.055L25.065 17.1783C25.0217 17.28 25 18.8217 25 18.8217C25 22.8717 28 26.305 31.8317 26.6367C32.06 26.6567 32.285 26.6667 32.51 26.6667C34.3917 26.6667 36.1667 25.98 37.5667 24.695C39.1133 23.2767 40 21.2617 40 19.1667C40 19.1667 39.98 17.2833 39.935 17.1767ZM13.3333 25.8333C13.3333 27.465 12.6433 29.0317 11.44 30.135C10.2217 31.2533 8.64333 31.7883 6.975 31.645C3.99833 31.3867 1.665 28.6817 1.665 25.4883V25.0017H13.3317V25.835L13.3333 25.8333ZM12.885 23.3333H2.08667L7.28667 10.9217L7.32667 10.8283L12.885 23.3333ZM32.4583 3.91167C32.5383 4.02667 32.6333 4.13 32.6883 4.26333L37.91 16.665H27.0867L32.4567 3.91L32.4583 3.91167ZM38.3333 19.1667C38.3333 20.7983 37.6433 22.365 36.44 23.4683C35.2217 24.585 33.6417 25.1267 31.975 24.9783C28.9983 24.72 26.665 22.015 26.665 18.8217V18.335H38.3317V19.1683L38.3333 19.1667Z" fill="white"/>
</g>
<defs>
<clipPath id="clip0_31_471">
<rect width="40" height="40" fill="white"/>
</clipPath>
</defs>
</svg>

<svg width="40" height="40" fill="none" xmlns="http://www.w3.org/2000/svg"><g clip-path="url(#a)"><path d="M39.935 17.177v-.004L34.227 3.617a3.645 3.645 0 0 0-1.472-1.689.82.82 0 0 0-.282-.198c-.043-.018-.09-.017-.136-.027a3.636 3.636 0 0 0-2.435-.208L20.835 3.91V.833a.834.834 0 0 0-1.667 0v3.522L9.63 6.895a5.868 5.868 0 0 0-3.88 3.382L.065 23.845C.022 23.948 0 25.488 0 25.488c0 4.05 3 7.484 6.832 7.815.228.02.453.03.678.03a7.413 7.413 0 0 0 5.057-1.971A7.52 7.52 0 0 0 15 25.833s-.025-1.898-.072-2.005L8.48 9.32a4.16 4.16 0 0 1 1.578-.815l9.109-2.427v32.255H7.5A.834.834 0 0 0 7.5 40h25a.834.834 0 0 0 0-1.667H20.833V5.637l9.497-2.529c.228-.061.458-.073.682-.053l-5.947 14.123c-.043.102-.065 1.644-.065 1.644 0 4.05 3 7.483 6.832 7.815.228.02.453.03.678.03a7.413 7.413 0 0 0 5.057-1.972A7.52 7.52 0 0 0 40 19.167s-.02-1.884-.065-1.99Zm-26.602 8.656a5.85 5.85 0 0 1-1.893 4.302 5.78 5.78 0 0 1-4.465 1.51c-2.977-.258-5.31-2.963-5.31-6.157v-.486h11.667v.833l.001-.002Zm-.448-2.5H2.087l5.2-12.411.04-.094 5.558 12.505ZM32.458 3.912c.08.115.175.218.23.351l5.222 12.402H27.087l5.37-12.755.001.002Zm5.875 15.255c0 1.631-.69 3.198-1.893 4.301a5.77 5.77 0 0 1-4.465 1.51c-2.977-.258-5.31-2.963-5.31-6.156v-.487h11.667v.833l.001-.001Z" fill="#fff"/></g><defs><clipPath id="a"><path fill="#fff" d="M0 0h40v40H0z"/></clipPath></defs></svg>
